X:79
T:Steyrer Tanz in G, nr. 41
C:traditionell
R:Steirer
A:Hallstatt, Salzkammergut
B:Corpus Musicae Popularis Austriacae (COMPA), 5.Band: J.M.Schmalnauer " Tanz Musik", Verlag Boehlau, Wien 1996
S:manuscript des Johann Michael Schmalnauer um 1820
N:im der quelle in G
Z:abc transcription Simon Wascher
F:http://simonwascher.info/TradArchiv/
M:3/4
L:1/8
K:G
V:1
%violino 1mo
P:h:Ap:
dc |\
Bdgfed | cAcA F2 | c'ac'a fa | bgbgdc |\
Bdgfed | cAcA F2 | c'ac'a fa | g4 :|
V:2
%violino 2do
BA |\
(GB)(edcB) | AFAF D2 | afafdc | BdgdBA |\
(GB)(edcB) | AFAF D2 | afafdc | B4 :|
